X:640
T: Mind the Step
S: B.Breathnach:"Ceol Rince na hEireann" IV/55 (gan ainm)
Z: B.Black
L: 1/8
M: 12/8
Q: 360
R: jig
K: G
(3D/E/F/|G2A BAG A2G E2D|DEG A2B c3 B2A|
G2A BAG A2G E2D|d2B ABA G3 G2 :|
A|GAB BAB GAB BAB|GAG d2B A3 A3|
GAB BAB GAB BAB|d2B ABA G3 G2 :|
